X:1
T:A Sinner Made Whole
T:Charles Hutchinson Gabriel
T:A Sinner Made Whole
T:Public Domain
T:Public Domain
C:Charles Hutchinson Gabriel
Z:Public Domain
%%score ( 1 2 ) ( 3 4 )
L:1/8
M:6/8
K:A
V:1 treble 
V:2 treble 
V:3 bass 
V:4 bass 
V:1
 E/E/ | [Ac]>[Ac][Ac] [Ac]>[Bd][ce] | [ce]>[ce][df] [ce]2 [ce] | [Ac]>[Ac][Ac] [Ac][GB]A | %4
w: 1.~There’s a|my heart that my lips can-|not sing, ’Tis praise in|the high- est to Je- sus|
w: 2.~I shall|day fault- less and pure by|His throne, Trans- formed from|my im- age, con- formed to|
w: 3.~All the|of Heav- en, so per- fect|and sweet, Will blend with|my song just to make it|
 [Gd][Gd][Ac] [GB]2 E | [Ac]>[Ac][Ac] [Ac]>[Bd][ce] | [ce]>[ce][df] [ce]2 [Ac] | %7
w: King; Its mu- sic each|ment is thrill- ing my soul,|For I was a sin-|
w: own; Then I shall find|for the song of my soul,|For I was a sin-|
w: plete, Thro’ ag- es un-|ing the e- choes will roll,|For I was a sin-|
 [ce]>[ce][ce] [ce]<[Ac]A | c[ce]>[Bd] [Ac]2 ||"^Refrain" [Ac] | [GB]<[GB][Ac] [Gd]2 [GB] | %11
w: ner, but Christ made me whole.||||
w: ner, but Christ made me whole.|sin- ner made whole!|sin-|ner made whole! The Sav-|
w: ner, but Christ made me whole.||||
 [Ac]<[Ac][Bd] [ce]2 [Ac] | [GB]>[GB][GB] [A^d][Ac][AB] | [Be][Be][ce] [de]2 E | %14
w: |||
w: ior has bought me and|ran- somed my soul! My heart|now is sing- ing; there’s|
w: |||
 [Ac]>[Ac][Ac] [Ac]>[Bd][ce] | [ce]>[ce][df] [ce]2 [Ac] | [ce]>[ce][ce] [ce]<[Ac]A | %17
w: |||
w: in my soul, For I was|a sin- ner, but Christ|made me whole. * * *|
w: |||
 c[ce]>[Bd] [Ac]2 |] %18
w: |
w: |
w: |
V:2
 E/E/ | x6 | x6 | x5 A | x5 E | x6 | x6 | x5 A | c x4 || x | x6 | x6 | x6 | x5 E | x6 | x6 | x5 A | %17
w: song in|||my|mo-|||||||||||||
w: stand one|||His|words|||A|A|||||joy||||
w: mu- sic|||com-|end-|||||||||||||
 c x4 |] %18
w: |
w: |
w: |
V:3
 E,/E,/ | [A,,E,]>[A,,E,][A,,E,] [A,,E,]>[A,,E,][A,,B,] | A,>A,A, A,2 [A,,A,] | %3
 [A,,E,]>[A,,E,][A,,E,] E,[D,E,][C,E,] | [B,,E,][B,,E,][A,,E,] E,2 E, | %5
 [A,,E,]>[A,,E,][A,,E,] [A,,E,]>[A,,E,][A,,A,] | A,>A,A, A,2 E, | %7
 [A,,A,]>[A,,A,][A,,A,] [A,,A,]<[A,,E,][C,E,] | [E,A,][E,G,]>[E,G,] [A,,E,]2 || E, | %10
 E,<[D,E,][C,E,] [B,,E,]2 E, | [A,,E,]<[A,,E,][A,,E,] [A,,A,]2 [A,,E,] | %12
 [B,,E,]>[B,,E,][B,,E,] [B,,F,][C,F,][^D,F,] | [E,G,][E,G,][E,A,] [E,G,]2 E, | %14
 [A,,E,]>[A,,E,][A,,E,] [A,,E,]>[A,,E,][A,,A,] | A,>A,A, A,2 E, | %16
 [A,,A,]>[A,,A,][A,,A,] [A,,A,]<[A,,E,][C,E,] | [E,A,][E,G,]>[E,G,] [A,,E,]2 |] %18
V:4
 E,/E,/ | x6 | A,>A,A, A,2 x | x3 E, x2 | x3 E,2 E, | x6 | A,>A,A, A,2 E, | x6 | x5 || E, | %10
 E,/ x4 E, x/ | x6 | x6 | x5 E, | x6 | A,>A,A, A,2 E, | x6 | x5 |] %18

